usr/share/icons/biglinux-icons-material/22/actions/flower-shape.svg

<svg xmlns="http://www.w3.org/2000/svg" viewBox="0 0 22 22">
  <defs id="defs3051">
    <style type="text/css" id="current-color-scheme">
      .ColorScheme-Text {
        color:#dedede;
      }
      </style>
  </defs>
 <path 
     style="fill:currentColor;fill-opacity:1;stroke:none" 
     d="M 11 3 C 9.895146 3 8.65625 5.34375 8.65625 5.34375 C 8.65625 5.34375 6.1245137 4.5629863 5.34375 5.34375 C 4.5629863 6.1245137 5.34375 8.65625 5.34375 8.65625 C 5.34375 8.65625 3 9.895146 3 11 C 3 12.104854 5.34375 13.34375 5.34375 13.34375 C 5.34375 13.34375 4.5629863 15.875486 5.34375 16.65625 C 6.1245137 17.437014 8.65625 16.65625 8.65625 16.65625 C 8.65625 16.65625 9.895146 19 11 19 C 12.104854 19 13.34375 16.65625 13.34375 16.65625 C 13.34375 16.65625 15.875486 17.437014 16.65625 16.65625 C 17.437014 15.875486 16.65625 13.34375 16.65625 13.34375 C 16.65625 13.34375 19 12.104854 19 11 C 19 9.895146 16.65625 8.65625 16.65625 8.65625 C 16.65625 8.65625 17.437014 6.1245137 16.65625 5.34375 C 15.875486 4.5629863 13.34375 5.34375 13.34375 5.34375 C 13.34375 5.34375 12.104854 3 11 3 z M 11 7 C 13.209139 7 15 8.790861 15 11 C 15 13.209139 13.209139 15 11 15 C 8.790861 15 7 13.209139 7 11 C 7 8.790861 8.790861 7 11 7 z "
	 class="ColorScheme-Text"
     />
</svg>

<svg xmlns="http://www.w3.org/2000/svg" viewBox="0 0 22 22"><path d="M11 3C9.895 3 8.656 5.344 8.656 5.344s-2.531-.781-3.312 0c-.781.78 0 3.312 0 3.312S3 9.896 3 11c0 1.105 2.344 2.344 2.344 2.344s-.781 2.531 0 3.312c.78.781 3.312 0 3.312 0S9.896 19 11 19c1.105 0 2.344-2.344 2.344-2.344s2.531.781 3.312 0c.781-.78 0-3.312 0-3.312S19 12.104 19 11c0-1.105-2.344-2.344-2.344-2.344s.781-2.531 0-3.312c-.78-.781-3.312 0-3.312 0S12.104 3 11 3zm0 4a4 4 0 1 1 0 8 4 4 0 0 1 0-8z" style="fill:currentColor;fill-opacity:1;stroke:none;color:#dedede"/></svg>
